X: 33
M:C|
L:1/8
K:D
vBAAB dAFA | BAAB defd | BAAB dAFA | defd e2d2 |
dfaf bfaf | dfaf g2fe | dfaf bfaf | defd e2d2 |
dfaf bfaf | bfaf e2de | afef dBAB | fafd e2d2 |]


